X:1
T:O'Carolan's Welcome
R:air
M:3/4
S:The Chieftans
K:Ador
|: cB | A2 cd e2 | A2 cd e2 | de dc BA | (3(GAB) G2 E2 |
|1 c3B A2 | d3c B2 | ce E2 G2 | A4 :|
|2 g3f e2 | a3g e2 | de dc Bc | A4 |
e2 | e2 ab ^c'2 | e2 ab ^c'2 | ^c'b ag ab | ^c'2 e2 e2 |
=f2 af ed | e2 ge dc | d2 e2 g2 | a6 |
ag eg a2 | ge de g2 | ed cd ec | d2 B2 G2 |
c3B A2 | d3c B2 | ce E2 G2 | A4 :|


